icons/lines/message-favorite.svg

<svg xmlns="http://www.w3.org/2000/svg" width="24" height="24" viewBox="0 0 24 24" fill="none" stroke="currentColor" stroke-width="2" stroke-linecap="round" stroke-linejoin="round" >
  <path d="M22 8V13C22 17 20 19 16 19H15.5C15.19 19 14.89 19.15 14.7 19.4L13.2 21.4C12.54 22.28 11.46 22.28 10.8 21.4L9.3 19.4C9.14 19.18 8.77 19 8.5 19H8C4 19 2 18 2 13V8C2 4 4 2 8 2H12" stroke-miterlimit="10"/>
  <path d="M15.2002 4.62002C14.8702 3.63002 15.2602 2.41002 16.3402 2.07002C16.9002 1.90002 17.6002 2.04002 18.0002 2.57002C18.3802 2.02002 19.1002 1.90002 19.6602 2.07002C20.7402 2.40002 21.1302 3.63002 20.8002 4.62002C20.2902 6.19002 18.5002 7.00002 18.0002 7.00002C17.5002 7.00002 15.7302 6.20002 15.2002 4.62002Z"/>
  <path d="M15.9965 11H16.0054"/>
  <path d="M11.9955 11H12.0045"/>
  <path d="M7.99451 11H8.00349"/>
  </svg>

<svg xmlns="http://www.w3.org/2000/svg" width="24" height="24" viewBox="0 0 24 24" fill="none" stroke="currentColor" stroke-width="2" stroke-linecap="round" stroke-linejoin="round">
  <path d="M11.996 11h.01" />
  <path d="M15.2 4.62c-.33-.99.06-2.21 1.14-2.55.56-.17 1.26-.03 1.66.5.38-.55 1.1-.67 1.66-.5 1.08.33 1.47 1.56 1.14 2.55C20.29 6.19 18.5 7 18 7s-2.27-.8-2.8-2.38" />
  <path d="M15.997 11h.01" />
  <path d="M22 8v5q0 6-6 6h-.5a1 1 0 0 0-.8.4l-1.5 2c-.66.88-1.74.88-2.4 0l-1.5-2c-.16-.22-.53-.4-.8-.4H8c-4 0-6-1-6-6V8q0-6 6-6h4" />
  <path d="M7.995 11h.01" />
</svg>
